tools/download-figma-icons/icons/outlined-medium/trash.svg

<svg width="24" height="24" viewBox="0 0 24 24" fill="none" xmlns="http://www.w3.org/2000/svg">
<path fill-rule="evenodd" clip-rule="evenodd" d="M17.833 22.5C18.3385 22.5 18.7502 22.0717 18.7502 21.5452V5.25H5.25024V21.5452C5.25024 22.0717 5.66124 22.5 6.16674 22.5H17.833ZM9.01347 1.56955C9.00771 1.60048 9.00024 1.64058 9.00024 1.6875V3.75H15.0002V1.6875C15.0002 1.57275 14.9552 1.49925 14.935 1.4835L9.00174 1.5C9.02634 1.50044 9.02161 1.52583 9.01347 1.56955ZM16.5002 3.75H21.7502C22.165 3.75 22.5002 4.086 22.5002 4.5C22.5002 4.91475 22.165 5.25 21.7502 5.25H20.2502V21.5452C20.2502 22.899 19.1665 24 17.833 24H6.16674C4.83399 24 3.75024 22.899 3.75024 21.5452V5.25H2.25024C1.83549 5.25 1.50024 4.91475 1.50024 4.5C1.50024 4.086 1.83549 3.75 2.25024 3.75H7.50024V1.6875C7.50024 0.7575 8.17299 0 9.00024 0H15.0002C15.8275 0 16.5002 0.7575 16.5002 1.6875V3.75ZM11.2502 9.3753C11.2502 8.96055 11.5855 8.6253 12.0002 8.6253C12.415 8.6253 12.7502 8.96055 12.7502 9.3753V18.3753C12.7502 18.7901 12.415 19.1253 12.0002 19.1253C11.5855 19.1253 11.2502 18.7901 11.2502 18.3753V9.3753ZM15.0002 9.3753V18.3753C15.0002 18.7901 15.3355 19.1253 15.7502 19.1253C16.165 19.1253 16.5002 18.7901 16.5002 18.3753V9.3753C16.5002 8.96055 16.165 8.6253 15.7502 8.6253C15.3355 8.6253 15.0002 8.96055 15.0002 9.3753ZM7.50024 9.3753C7.50024 8.96055 7.83549 8.6253 8.25024 8.6253C8.66499 8.6253 9.00024 8.96055 9.00024 9.3753V18.3753C9.00024 18.7901 8.66499 19.1253 8.25024 19.1253C7.83549 19.1253 7.50024 18.7901 7.50024 18.3753V9.3753Z" fill="black"/>
</svg>

<svg xmlns="http://www.w3.org/2000/svg" width="24" height="24" fill="none" viewBox="0 0 24 24"><path fill="currentColor" fill-rule="evenodd" d="M17.833 22.5c.506 0 .917-.428.917-.955V5.25H5.25v16.295c0 .527.411.955.917.955zM9.013 1.57C9.008 1.6 9 1.64 9 1.687V3.75h6V1.688c0-.115-.045-.189-.065-.204L9.002 1.5c.024 0 .02.026.011.07M16.5 3.75h5.25a.75.75 0 1 1 0 1.5h-1.5v16.295C20.25 22.9 19.166 24 17.833 24H6.167c-1.333 0-2.417-1.101-2.417-2.455V5.25h-1.5a.75.75 0 1 1 0-1.5H7.5V1.688C7.5.758 8.173 0 9 0h6c.828 0 1.5.758 1.5 1.688zm-5.25 5.625a.75.75 0 1 1 1.5 0v9a.75.75 0 1 1-1.5 0zm3.75 0v9a.75.75 0 1 0 1.5 0v-9a.75.75 0 1 0-1.5 0m-7.5 0a.75.75 0 1 1 1.5 0v9a.75.75 0 1 1-1.5 0z" clip-rule="evenodd"/></svg>
